src/assets/profilesidebar.svg

<svg width="280" height="209" viewBox="0 0 280 209" fill="none" xmlns="http://www.w3.org/2000/svg">
<g clip-path="url(#clip0_17216_88231)">
<path d="M152.343 21.3157C155.995 21.3157 158.955 18.3503 158.955 14.6923C158.955 11.0343 155.995 8.06885 152.343 8.06885C148.692 8.06885 145.732 11.0343 145.732 14.6923C145.732 18.3503 148.692 21.3157 152.343 21.3157Z" fill="url(#paint0_linear_17216_88231)"/>
<path d="M151.689 17.2189C151.541 17.2191 151.396 17.1709 151.277 17.0815L151.269 17.076L149.716 15.8853C149.413 15.6528 149.356 15.2186 149.588 14.9154C149.82 14.6122 150.253 14.5548 150.556 14.7873L151.562 15.5604L153.94 12.4522C154.172 12.1491 154.605 12.0918 154.908 12.3241L154.893 12.3448L154.909 12.3243C155.211 12.5569 155.268 12.9907 155.036 13.2939L152.239 16.9483C152.108 17.119 151.905 17.2187 151.69 17.2181L151.689 17.2189Z" fill="white"/>
<path d="M152.343 66.0921C155.995 66.0921 158.955 63.1267 158.955 59.4686C158.955 55.8106 155.995 52.8452 152.343 52.8452C148.692 52.8452 145.732 55.8106 145.732 59.4686C145.732 63.1267 148.692 66.0921 152.343 66.0921Z" fill="url(#paint1_linear_17216_88231)"/>
<path d="M151.689 61.9954C151.541 61.9956 151.396 61.9474 151.277 61.858L151.269 61.8525L149.716 60.6617C149.413 60.4293 149.356 59.9951 149.588 59.6919C149.82 59.3887 150.253 59.3313 150.556 59.5638L151.562 60.3369L153.94 57.2287C154.172 56.9256 154.605 56.8683 154.908 57.1006L154.893 57.1213L154.909 57.1008C155.211 57.3334 155.268 57.7672 155.036 58.0704L152.239 61.7248C152.108 61.8954 151.905 61.9952 151.69 61.9945L151.689 61.9954Z" fill="white"/>
<path d="M168.946 129.068C168.865 126.993 170.478 125.246 172.549 125.164C172.769 125.156 172.99 125.167 173.209 125.197L179.264 113.295L182.685 119.332L176.411 129.708C175.99 131.752 173.994 133.067 171.954 132.645C170.247 132.292 169.003 130.813 168.946 129.068Z" fill="#FFB7B7"/>
<path d="M197.174 204.01L192.423 204.01L190.162 185.648L197.175 185.648L197.174 204.01Z" fill="#FFB7B7"/>
<path d="M198.386 208.625L183.064 208.624V208.43C183.065 205.131 185.735 202.456 189.028 202.456H189.028L198.386 202.456L198.386 208.625Z" fill="#444446"/>
<path d="M222.934 204.01L218.182 204.01L215.922 185.648L222.935 185.648L222.934 204.01Z" fill="#FFB7B7"/>
<path d="M224.146 208.625L208.824 208.624V208.43C208.824 205.131 211.494 202.456 214.788 202.456H214.788L224.146 202.456L224.146 208.625Z" fill="#444446"/>
<path d="M176.244 118.709L174.17 122.173C174.17 122.173 177.627 122.173 178.319 127.369L181.084 123.905L176.244 118.709Z" fill="#D1D1D6"/>
<path d="M212.546 111.436C212.546 111.436 218.078 125.983 219.115 134.989C220.152 143.995 221.881 167.894 221.881 167.894L225.338 198.721L215.658 200.106L211.509 168.933L202.175 138.106L200.1 168.933L198.372 196.989L189.383 197.335L188.692 168.24L184.889 131.179L186.963 113.514L212.546 111.436Z" fill="#444446"/>
<path d="M205.804 67.2738L209.261 69.698L213.755 115.073L185.752 115.765L189.555 84.2458L193.012 75.2402L195.508 71.9348L205.804 67.2738Z" fill="#D1D1D6"/>
<path d="M206.496 99.8323L207.554 68.5004C207.554 68.5004 209.608 68.659 210.299 69.6981C210.99 70.7373 222.399 72.8155 222.399 72.8155L220.325 105.028C220.325 105.028 228.968 130.659 225.857 132.045C222.745 133.43 217.213 133.084 217.213 133.084L206.496 99.8323Z" fill="#444446"/>
<path d="M189.728 95.8492L193.395 74.7327L185.233 80.2625L187.308 95.5028L185.579 105.894C185.579 105.894 179.01 134.643 181.085 135.682C183.159 136.721 185.579 135.682 185.579 135.682L189.728 106.587V95.8492Z" fill="#444446"/>
<path d="M187.653 79.5697L185.233 80.2624L184.196 94.1172L182.467 106.24L174.17 121.134C174.17 121.134 178.319 118.363 180.047 126.33L189.185 110.391L187.653 79.5697Z" fill="#444446"/>
<path d="M206.458 126.227C206.781 124.176 208.701 122.776 210.748 123.099C210.967 123.133 211.181 123.187 211.39 123.259L219.636 112.761L221.822 119.348L213.657 128.307C212.848 130.231 210.635 131.133 208.716 130.322C207.109 129.643 206.176 127.951 206.458 126.227Z" fill="#FFB7B7"/>
<path d="M220.498 122.519L217.387 126.33L213.238 119.056L214.967 115.939L220.498 122.519Z" fill="#D1D1D6"/>
<path d="M219.807 74.0278L222.573 72.6423C222.573 72.6423 224.647 75.4133 224.993 77.8379C225.339 80.2625 227.067 83.3798 227.067 85.1116C227.067 86.8435 231.907 103.123 231.907 103.123L220.844 125.637C220.844 125.637 218.424 117.324 213.238 116.631L221.881 104.508L217.041 95.8491L219.807 74.0278Z" fill="#444446"/>
<path d="M279.651 208.839H146.621C146.428 208.839 146.271 208.682 146.271 208.489C146.271 208.296 146.428 208.139 146.621 208.139H279.651C279.844 208.139 280 208.296 280 208.489C280 208.682 279.844 208.839 279.651 208.839Z" fill="#E5E5EA"/>
<path d="M127.444 74.1609H0V44.7764H127.444V74.1609Z" fill="white"/>
<path d="M18.3922 54.4923C17.7063 54.4923 17.1504 55.0493 17.1504 55.7364C17.1504 56.4235 17.7063 56.9805 18.3922 56.9805H109.055C109.741 56.9805 110.297 56.4235 110.297 55.7364C110.297 55.0493 109.741 54.4923 109.055 54.4923H18.3922Z" fill="url(#paint2_linear_17216_88231)"/>
<path d="M18.3928 61.9568C17.707 61.9553 17.1499 62.5112 17.1484 63.1983C17.147 63.8853 17.7018 64.4435 18.3876 64.445H75.7057C76.3915 64.445 76.9475 63.888 76.9475 63.2009C76.9475 62.5138 76.3915 61.9568 75.7057 61.9568L18.3928 61.9568Z" fill="url(#paint3_linear_17216_88231)"/>
<path d="M127.444 74.1609H0V44.7764H127.444V74.1609ZM2.09497 72.062H125.349V46.8753H2.09497V72.062Z" fill="#D1D1D6"/>
<path d="M127.444 118.937H0V89.5529H127.444V118.937Z" fill="white"/>
<path d="M18.3922 99.2688C17.7063 99.2688 17.1504 99.8258 17.1504 100.513C17.1504 101.2 17.7063 101.757 18.3922 101.757H109.055C109.741 101.757 110.297 101.2 110.297 100.513C110.297 99.8258 109.741 99.2688 109.055 99.2688H18.3922Z" fill="#D1D1D6"/>
<path d="M18.3928 106.733C17.707 106.732 17.1499 107.288 17.1484 107.975C17.147 108.662 17.7018 109.22 18.3876 109.221H75.7057C76.3915 109.221 76.9475 108.664 76.9475 107.977C76.9475 107.29 76.3915 106.733 75.7057 106.733H18.3928Z" fill="#D1D1D6"/>
<path d="M127.444 118.937H0V89.5529H127.444V118.937ZM2.09497 116.838H125.349V91.6518H2.09497V116.838Z" fill="#D1D1D6"/>
<path d="M128.491 29.3845H1.04688V0H128.491V29.3845Z" fill="white"/>
<path d="M19.4407 9.71594C18.7549 9.7172 18.1999 10.2752 18.2012 10.9623C18.2024 11.6476 18.7566 12.2029 19.4407 12.2041H110.104C110.79 12.2029 111.344 11.6449 111.343 10.9578C111.342 10.2724 110.788 9.71719 110.104 9.71594H19.4407Z" fill="url(#paint4_linear_17216_88231)"/>
<path d="M19.4397 17.1804C18.7539 17.179 18.1968 17.7348 18.1953 18.4219C18.1939 19.109 18.7487 19.6672 19.4345 19.6686H76.7526C77.4384 19.6699 77.9953 19.1139 77.9966 18.4268C77.9978 17.7397 77.4429 17.1817 76.7571 17.1804C76.7556 17.1804 76.7541 17.1804 76.7526 17.1804L19.4397 17.1804Z" fill="url(#paint5_linear_17216_88231)"/>
<path d="M128.491 29.3845H1.04688V0H128.491V29.3845ZM3.14184 27.2856H126.396V2.09889H3.14184V27.2856Z" fill="#D1D1D6"/>
<path d="M258.117 209V183.694C258.117 183.694 267.961 201.635 258.117 209Z" fill="#F2F2F7"/>
<path d="M258.726 208.996L240.119 191.882C240.119 191.882 259.967 196.75 258.726 208.996Z" fill="#F2F2F7"/>
<path d="M169.103 128.305C172.754 128.305 175.714 125.34 175.714 121.682C175.714 118.024 172.754 115.058 169.103 115.058C165.452 115.058 162.492 118.024 162.492 121.682C162.492 125.34 165.452 128.305 169.103 128.305Z" fill="url(#paint6_linear_17216_88231)"/>
<path d="M168.449 124.208C168.3 124.209 168.156 124.161 168.037 124.071L168.029 124.066L166.475 122.875C166.173 122.642 166.116 122.208 166.348 121.905C166.58 121.602 167.013 121.544 167.316 121.777L168.322 122.55L170.7 119.442C170.932 119.139 171.365 119.081 171.668 119.314L171.653 119.334L171.668 119.314C171.97 119.547 172.028 119.98 171.796 120.284L168.999 123.938C168.868 124.109 168.665 124.208 168.45 124.208L168.449 124.208Z" fill="white"/>
<path d="M196.084 67.8479C201.311 67.8479 205.548 63.603 205.548 58.3668C205.548 53.1306 201.311 48.8857 196.084 48.8857C190.858 48.8857 186.621 53.1306 186.621 58.3668C186.621 63.603 190.858 67.8479 196.084 67.8479Z" fill="#FFB6B6"/>
<path d="M204.35 65.6514C204.35 65.6514 207.153 59.9642 207.103 57.793C207.053 55.6219 205.522 50.0347 204.875 49.6663C204.229 49.2979 197.26 45.7529 195.372 46.8188C193.483 47.8846 190.159 51.5302 186.575 52.5164C185.561 52.7954 186.446 58.0141 186.446 58.0141L190.641 57.4062C190.641 57.4062 195.014 53.4718 195.204 56.1509C195.393 58.8299 199.448 57.7141 199.448 57.7141L199.498 59.8853L201.158 59.9747L201.616 57.6641C201.616 57.6641 202.362 62.3749 201.398 64.825C200.433 67.2751 204.35 65.6514 204.35 65.6514Z" fill="#444446"/>
</g>
<defs>
<linearGradient id="paint0_linear_17216_88231" x1="152.343" y1="8.06885" x2="152.343" y2="21.3157" gradientUnits="userSpaceOnUse">
<stop stop-color="#0DAFDC"/>
<stop offset="1" stop-color="#22E9A2"/>
</linearGradient>
<linearGradient id="paint1_linear_17216_88231" x1="152.343" y1="52.8452" x2="152.343" y2="66.0921" gradientUnits="userSpaceOnUse">
<stop stop-color="#0DAFDC"/>
<stop offset="1" stop-color="#22E9A2"/>
</linearGradient>
<linearGradient id="paint2_linear_17216_88231" x1="63.7237" y1="54.4923" x2="63.7237" y2="56.9805" gradientUnits="userSpaceOnUse">
<stop stop-color="#0DAFDC"/>
<stop offset="1" stop-color="#22E9A2"/>
</linearGradient>
<linearGradient id="paint3_linear_17216_88231" x1="47.0479" y1="61.9568" x2="47.0479" y2="64.445" gradientUnits="userSpaceOnUse">
<stop stop-color="#0DAFDC"/>
<stop offset="1" stop-color="#22E9A2"/>
</linearGradient>
<linearGradient id="paint4_linear_17216_88231" x1="64.7722" y1="9.71594" x2="64.7722" y2="12.2041" gradientUnits="userSpaceOnUse">
<stop stop-color="#0DAFDC"/>
<stop offset="1" stop-color="#22E9A2"/>
</linearGradient>
<linearGradient id="paint5_linear_17216_88231" x1="48.096" y1="17.1804" x2="48.096" y2="19.6686" gradientUnits="userSpaceOnUse">
<stop stop-color="#0DAFDC"/>
<stop offset="1" stop-color="#22E9A2"/>
</linearGradient>
<linearGradient id="paint6_linear_17216_88231" x1="169.103" y1="115.058" x2="169.103" y2="128.305" gradientUnits="userSpaceOnUse">
<stop stop-color="#0DAFDC"/>
<stop offset="1" stop-color="#22E9A2"/>
</linearGradient>
<clipPath id="clip0_17216_88231">
<rect width="280" height="209" fill="white"/>
</clipPath>
</defs>
</svg>

<svg xmlns="http://www.w3.org/2000/svg" width="280" height="209" fill="none"><g clip-path="url(#a)"><path fill="url(#b)" d="M152.343 21.316c3.652 0 6.612-2.966 6.612-6.624s-2.96-6.623-6.612-6.623c-3.651 0-6.611 2.965-6.611 6.623s2.96 6.624 6.611 6.624"/><path fill="#fff" d="M151.689 17.219a.7.7 0 0 1-.412-.138l-.008-.005-1.553-1.19a.692.692 0 0 1 .84-1.099l1.006.773 2.378-3.108a.69.69 0 0 1 .968-.128l-.015.02.016-.02a.693.693 0 0 1 .127.97l-2.797 3.654a.69.69 0 0 1-.549.27z"/><path fill="url(#c)" d="M152.343 66.092c3.652 0 6.612-2.965 6.612-6.623s-2.96-6.624-6.612-6.624c-3.651 0-6.611 2.966-6.611 6.624s2.96 6.623 6.611 6.623"/><path fill="#fff" d="M151.689 61.995a.7.7 0 0 1-.412-.137l-.008-.005-1.553-1.191a.692.692 0 0 1 .84-1.098l1.006.773 2.378-3.108a.69.69 0 0 1 .968-.128l-.015.02.016-.02a.693.693 0 0 1 .127.97l-2.797 3.654a.69.69 0 0 1-.549.27z"/><path fill="#FFB7B7" d="M168.946 129.068a3.757 3.757 0 0 1 4.263-3.871l6.055-11.902 3.421 6.037-6.274 10.376a3.772 3.772 0 0 1-7.465-.64M197.174 204.01h-4.751l-2.261-18.362h7.013z"/><path fill="#444446" d="m198.386 208.625-15.322-.001v-.194c.001-3.299 2.671-5.974 5.964-5.974h9.358z"/><path fill="#FFB7B7" d="M222.934 204.01h-4.752l-2.26-18.362h7.013z"/><path fill="#444446" d="m224.146 208.625-15.322-.001v-.194a5.97 5.97 0 0 1 5.964-5.974h9.358z"/><path fill="#D1D1D6" d="m176.244 118.709-2.074 3.464s3.457 0 4.149 5.196l2.765-3.464z"/><path fill="#444446" d="M212.546 111.436s5.532 14.547 6.569 23.553 2.766 32.905 2.766 32.905l3.457 30.827-9.68 1.385-4.149-31.173-9.334-30.827-2.075 30.827-1.728 28.056-8.989.346-.691-29.095-3.803-37.061 2.074-17.665z"/><path fill="#D1D1D6" d="m205.804 67.274 3.457 2.424 4.494 45.375-28.003.692 3.803-31.52 3.457-9.005 2.496-3.305z"/><path fill="#444446" d="m206.496 99.832 1.058-31.332s2.054.159 2.745 1.198c.691 1.04 12.1 3.118 12.1 3.118l-2.074 32.212s8.643 25.631 5.532 27.017-8.644 1.039-8.644 1.039zM189.728 95.85l3.667-21.117-8.162 5.53 2.075 15.24-1.729 10.391s-6.569 28.749-4.494 29.788c2.074 1.039 4.494 0 4.494 0l4.149-29.095z"/><path fill="#444446" d="m187.653 79.57-2.42.692-1.037 13.855-1.729 12.123-8.297 14.894s4.149-2.771 5.877 5.196l9.138-15.939z"/><path fill="#FFB7B7" d="M206.458 126.227a3.753 3.753 0 0 1 4.932-2.968l8.246-10.498 2.186 6.587-8.165 8.959a3.77 3.77 0 0 1-4.941 2.015 3.78 3.78 0 0 1-2.258-4.095"/><path fill="#D1D1D6" d="m220.498 122.519-3.111 3.811-4.149-7.274 1.729-3.117z"/><path fill="#444446" d="m219.807 74.028 2.766-1.386s2.074 2.771 2.42 5.196 2.074 5.542 2.074 7.274 4.84 18.011 4.84 18.011l-11.063 22.514s-2.42-8.313-7.606-9.006l8.643-12.123-4.84-8.659z"/><path fill="#E5E5EA" d="M279.651 208.839h-133.03a.35.35 0 0 1 0-.7h133.03a.35.35 0 0 1 0 .7"/><path fill="#fff" d="M127.444 74.16H0V44.777h127.444z"/><path fill="url(#d)" d="M18.392 54.492c-.686 0-1.242.557-1.242 1.244 0 .688.556 1.245 1.242 1.245h90.663c.686 0 1.242-.558 1.242-1.245s-.556-1.244-1.242-1.244z"/><path fill="url(#e)" d="M18.393 61.957a1.243 1.243 0 0 0-.005 2.488h57.318a1.243 1.243 0 0 0 0-2.488z"/><path fill="#D1D1D6" d="M127.444 74.16H0V44.777h127.444zM2.095 72.063h123.254V46.875H2.095z"/><path fill="#fff" d="M127.444 118.937H0V89.553h127.444z"/><path fill="#D1D1D6" d="M18.392 99.269c-.686 0-1.242.557-1.242 1.244s.556 1.244 1.242 1.244h90.663a1.243 1.243 0 0 0 0-2.488zM18.393 106.733a1.244 1.244 0 0 0-.005 2.488h57.318a1.243 1.243 0 0 0 0-2.488z"/><path fill="#D1D1D6" d="M127.444 118.937H0V89.553h127.444zM2.095 116.838h123.254V91.652H2.095z"/><path fill="#fff" d="M128.491 29.385H1.047V0H128.49z"/><path fill="url(#f)" d="M19.44 9.716a1.243 1.243 0 0 0 0 2.488h90.664a1.24 1.24 0 0 0 1.239-1.246 1.24 1.24 0 0 0-1.239-1.242z"/><path fill="url(#g)" d="M19.44 17.18a1.243 1.243 0 0 0-1.245 1.242 1.243 1.243 0 0 0 1.24 1.247h57.318a1.243 1.243 0 0 0 1.244-1.242 1.243 1.243 0 0 0-1.24-1.247H19.44"/><path fill="#D1D1D6" d="M128.491 29.385H1.047V0H128.49zm-125.35-2.1h123.255V2.1H3.142z"/><path fill="#F2F2F7" d="M258.117 209v-25.306s9.844 17.941 0 25.306"/><path fill="#F2F2F7" d="m258.726 208.996-18.607-17.114s19.848 4.868 18.607 17.114"/><path fill="url(#h)" d="M169.103 128.305c3.651 0 6.611-2.965 6.611-6.623s-2.96-6.624-6.611-6.624-6.611 2.966-6.611 6.624 2.96 6.623 6.611 6.623"/><path fill="#fff" d="M168.449 124.208a.67.67 0 0 1-.412-.137l-.008-.005-1.554-1.191a.693.693 0 0 1-.127-.97.69.69 0 0 1 .968-.128l1.006.773 2.378-3.108a.69.69 0 0 1 .968-.128l-.015.02.015-.02c.302.233.36.666.128.97l-2.797 3.654a.69.69 0 0 1-.549.27z"/><path fill="#FFB6B6" d="M196.084 67.848c5.227 0 9.464-4.245 9.464-9.481s-4.237-9.481-9.464-9.481c-5.226 0-9.463 4.245-9.463 9.48 0 5.237 4.237 9.482 9.463 9.482"/><path fill="#444446" d="M204.35 65.651s2.803-5.687 2.753-7.858-1.581-7.758-2.228-8.127c-.646-.368-7.615-3.913-9.503-2.847-1.889 1.066-5.213 4.711-8.797 5.697-1.014.28-.129 5.498-.129 5.498l4.195-.608s4.373-3.934 4.563-1.255 4.244 1.563 4.244 1.563l.05 2.171 1.66.09.458-2.31s.746 4.71-.218 7.16c-.965 2.45 2.952.826 2.952.826"/></g><defs><linearGradient id="b" x1="152.343" x2="152.343" y1="8.069" y2="21.316" gradientUnits="userSpaceOnUse"><stop stop-color="#0DAFDC"/><stop offset="1" stop-color="#22E9A2"/></linearGradient><linearGradient id="c" x1="152.343" x2="152.343" y1="52.845" y2="66.092" gradientUnits="userSpaceOnUse"><stop stop-color="#0DAFDC"/><stop offset="1" stop-color="#22E9A2"/></linearGradient><linearGradient id="d" x1="63.724" x2="63.724" y1="54.492" y2="56.98" gradientUnits="userSpaceOnUse"><stop stop-color="#0DAFDC"/><stop offset="1" stop-color="#22E9A2"/></linearGradient><linearGradient id="e" x1="47.048" x2="47.048" y1="61.957" y2="64.445" gradientUnits="userSpaceOnUse"><stop stop-color="#0DAFDC"/><stop offset="1" stop-color="#22E9A2"/></linearGradient><linearGradient id="f" x1="64.772" x2="64.772" y1="9.716" y2="12.204" gradientUnits="userSpaceOnUse"><stop stop-color="#0DAFDC"/><stop offset="1" stop-color="#22E9A2"/></linearGradient><linearGradient id="g" x1="48.096" x2="48.096" y1="17.18" y2="19.669" gradientUnits="userSpaceOnUse"><stop stop-color="#0DAFDC"/><stop offset="1" stop-color="#22E9A2"/></linearGradient><linearGradient id="h" x1="169.103" x2="169.103" y1="115.058" y2="128.305" gradientUnits="userSpaceOnUse"><stop stop-color="#0DAFDC"/><stop offset="1" stop-color="#22E9A2"/></linearGradient><clipPath id="a"><path fill="#fff" d="M0 0h280v209H0z"/></clipPath></defs></svg>
